;FLAVOR:UltiGCode
;TIME:2161
;MATERIAL:4040
;MATERIAL2:0
;NOZZLE_DIAMETER:0.4
;MINX:96.582
;MINY:96.592
;MINZ:0.27
;MAXX:126.411
;MAXY:126.411
;MAXZ:47.27
;Generated with Cura_SteamEngine 4.6.1
M82 ;absolute extrusion mode

G92 E0
G92 E0
G10
;LAYER_COUNT:236
;LAYER:0
M107
;MESH:Knight.stl
G0 F4320 X114.05 Y97.732 Z0.27
;TYPE:WALL-INNER
G11
G1 F1800 X115.05 Y97.954 E0.0968
G1 X116.009 Y98.244 E0.19148
G1 X116.991 Y98.62 E0.29085
G1 X117.901 Y99.045 E0.38576
G1 X118.799 Y99.548 E0.48303
G1 X119.654 Y100.114 E0.57992
G1 X120.461 Y100.739 E0.67638
G1 X121.212 Y101.411 E0.77162
G1 X121.931 Y102.157 E0.86953
G1 X122.598 Y102.959 E0.9681
G1 X123.17 Y103.761 E1.06119
G1 X123.722 Y104.663 E1.16112
G1 X124.181 Y105.556 E1.25601
G1 X124.578 Y106.488 E1.35174
G1 X124.914 Y107.473 E1.45009
G1 X125.169 Y108.448 E1.54532
G1 X125.358 Y109.475 E1.64401
G1 X125.467 Y110.478 E1.73935
G1 X125.506 Y111.501 E1.83609
G1 X125.467 Y112.524 E1.93284
G1 X125.358 Y113.528 E2.02827
G1 X125.169 Y114.554 E2.12686
G1 X124.916 Y115.524 E2.22159
G1 X124.579 Y116.51 E2.32006
G1 X124.185 Y117.438 E2.41533
G1 X123.714 Y118.354 E2.51267
G1 X123.177 Y119.233 E2.61001
G1 X122.598 Y120.044 E2.70417
G1 X121.931 Y120.846 E2.80275
G1 X121.227 Y121.576 E2.89859
G1 X120.456 Y122.268 E2.99649
G1 X119.654 Y122.888 E3.09228
G1 X118.795 Y123.456 E3.1896
G1 X117.907 Y123.955 E3.28586
G1 X116.992 Y124.383 E3.38132
G1 X116.011 Y124.758 E3.48057
G1 X115.05 Y125.047 E3.5754
G1 X114.05 Y125.27 E3.67222
G1 X113.023 Y125.421 E3.77031
G1 X112.022 Y125.495 E3.86517
G1 X110.982 Y125.495 E3.96345
G1 X109.981 Y125.421 E4.0583
G1 X108.954 Y125.27 E4.15639
G1 X107.955 Y125.048 E4.2531
G1 X106.994 Y124.758 E4.34796
G1 X106.013 Y124.383 E4.44721
G1 X105.098 Y123.955 E4.54267
G1 X104.21 Y123.456 E4.63893
G1 X103.35 Y122.888 E4.73632
G1 X102.552 Y122.27 E4.8317
G1 X101.782 Y121.58 E4.92941
G1 X101.073 Y120.846 E5.02585
G1 X100.411 Y120.05 E5.12368
G1 X99.819 Y119.222 E5.21987
G1 X99.295 Y118.362 E5.31504
G1 X98.817 Y117.433 E5.41377
G1 X98.428 Y116.515 E5.50799
G1 X98.09 Y115.527 E5.60666
G1 X97.835 Y114.553 E5.70181
G1 X97.646 Y113.528 E5.80031
G1 X97.537 Y112.524 E5.89574
G1 X97.499 Y111.501 E5.99248
G1 X97.537 Y110.478 E6.08922
G1 X97.646 Y109.475 E6.18456
G1 X97.835 Y108.449 E6.28315
G1 X98.091 Y107.473 E6.3785
G1 X98.427 Y106.488 E6.47685
G1 X98.819 Y105.565 E6.57162
G1 X99.298 Y104.635 E6.67047
G1 X99.819 Y103.781 E6.76501
G1 X100.411 Y102.953 E6.8612
G1 X101.074 Y102.157 E6.95909
G1 X101.792 Y101.411 E7.05694
G1 X102.544 Y100.739 E7.15224
G1 X103.35 Y100.114 E7.24863
G1 X104.206 Y99.548 E7.3456
G1 X105.104 Y99.045 E7.44287
G1 X106.014 Y98.62 E7.53778
G1 X106.996 Y98.244 E7.63715
G1 X107.955 Y97.954 E7.73183
G1 X108.954 Y97.732 E7.82854
G1 X109.981 Y97.581 E7.92663
G1 X110.981 Y97.508 E8.02138
G1 X112.023 Y97.508 E8.11985
G1 X113.023 Y97.581 E8.2146
G1 X114.05 Y97.732 E8.3127
G0 F4320 X114.122 Y97.389
G1 F1800 X115.133 Y97.614 E8.41057
G1 X116.125 Y97.913 E8.50848
G1 X117.125 Y98.296 E8.60968
G1 X118.059 Y98.733 E8.70712
G1 X118.985 Y99.252 E8.80744
G1 X119.858 Y99.829 E8.90633
G1 X120.683 Y100.468 E9.00494
G1 X121.457 Y101.161 E9.10312
G1 X122.192 Y101.923 E9.20317
G1 X122.874 Y102.744 E9.30403
G1 X123.469 Y103.578 E9.40084
G1 X124.021 Y104.48 E9.50078
G1 X124.503 Y105.418 E9.60044
G1 X124.904 Y106.361 E9.69727
G1 X125.253 Y107.384 E9.79942
G1 X125.508 Y108.36 E9.89474
G1 X125.705 Y109.429 E9.99746
G1 X125.817 Y110.455 E10.095
G1 X125.856 Y111.501 E10.19391
G1 X125.817 Y112.547 E10.29283
G1 X125.705 Y113.574 E10.39046
G1 X125.508 Y114.642 E10.49308
G1 X125.253 Y115.619 E10.5885
G1 X124.905 Y116.637 E10.69017
G1 X124.503 Y117.584 E10.78739
G1 X124.013 Y118.537 E10.88866
G1 X123.474 Y119.419 E10.98634
G1 X122.874 Y120.259 E11.08389
G1 X122.192 Y121.08 E11.18475
G1 X121.468 Y121.83 E11.28326
G1 X120.678 Y122.539 E11.38357
G1 X119.858 Y123.173 E11.48152
G1 X118.976 Y123.756 E11.58143
G1 X118.071 Y124.265 E11.67955
G1 X117.126 Y124.707 E11.77814
G1 X116.126 Y125.089 E11.8793
G1 X115.133 Y125.388 E11.9773
G1 X114.122 Y125.613 E12.07518
G1 X113.058 Y125.769 E12.1768
G1 X112.035 Y125.845 E12.27374
G1 X110.969 Y125.845 E12.37448
G1 X109.946 Y125.769 E12.47142
G1 X108.882 Y125.613 E12.57304
G1 X107.872 Y125.388 E12.67083
G1 X106.879 Y125.089 E12.76883
G1 X105.879 Y124.707 E12.86999
G1 X104.934 Y124.265 E12.96858
G1 X104.029 Y123.756 E13.0667
G1 X103.146 Y123.173 E13.16669
G1 X102.322 Y122.535 E13.26517
G1 X101.543 Y121.837 E13.36401
G1 X100.812 Y121.08 E13.46346
G1 X100.13 Y120.259 E13.56432
G1 X99.53 Y119.42 E13.66179
G1 X98.992 Y118.537 E13.7595
G1 X98.501 Y117.584 E13.86081
G1 X98.1 Y116.637 E13.958
G1 X97.752 Y115.619 E14.05966
G1 X97.496 Y114.642 E14.15511
G1 X97.299 Y113.574 E14.25774
G1 X97.187 Y112.547 E14.35536
G1 X97.149 Y111.501 E14.45427
G1 X97.187 Y110.455 E14.55319
G1 X97.299 Y109.429 E14.65072
G1 X97.496 Y108.36 E14.75344
G1 X97.752 Y107.384 E14.84879
G1 X98.101 Y106.361 E14.95094
G1 X98.501 Y105.419 E15.04765
G1 X98.995 Y104.46 E15.14959
G1 X99.53 Y103.583 E15.24667
G1 X100.13 Y102.744 E15.34415
G1 X100.813 Y101.923 E15.44507
G1 X101.547 Y101.161 E15.54505
G1 X102.322 Y100.468 E15.6433
G1 X103.146 Y99.829 E15.74184
G1 X104.02 Y99.252 E15.8408
G1 X104.946 Y98.733 E15.94112
G1 X105.88 Y98.296 E16.03857
G1 X106.88 Y97.913 E16.13976
G1 X107.872 Y97.614 E16.23767
G1 X108.882 Y97.389 E16.33545
G1 X109.946 Y97.233 E16.43708
G1 X110.969 Y97.158 E16.53401
G1 X112.035 Y97.158 E16.63475
G1 X113.058 Y97.233 E16.73168
G1 X114.122 Y97.389 E16.8333
G0 F4320 X114.174 Y97.068
;TYPE:WALL-OUTER
G1 F1800 X115.216 Y97.3 E16.93418
G1 X116.236 Y97.607 E17.03484
G1 X117.245 Y97.993 E17.13693
G1 X118.218 Y98.449 E17.23848
G1 X119.144 Y98.968 E17.33879
G1 X120.05 Y99.567 E17.44143
G1 X120.891 Y100.218 E17.54193
G1 X121.685 Y100.929 E17.64265
G1 X122.434 Y101.705 E17.74457
G1 X123.124 Y102.536 E17.84664
G1 X123.743 Y103.402 E17.94724
G1 X124.306 Y104.323 E18.04924
G1 X124.796 Y105.276 E18.15051
G1 X125.212 Y106.256 E18.25112
G1 X125.561 Y107.279 E18.35326
G1 X125.828 Y108.301 E18.45308
G1 X126.025 Y109.37 E18.5558
G1 X126.142 Y110.436 E18.65715
G1 X126.181 Y111.501 E18.75786
G1 X126.142 Y112.566 E18.85857
G1 X126.025 Y113.633 E18.96
G1 X125.828 Y114.701 E19.06263
G1 X125.561 Y115.724 E19.16254
G1 X125.212 Y116.746 E19.2646
G1 X124.796 Y117.726 E19.36521
G1 X124.301 Y118.688 E19.46744
G1 X123.743 Y119.601 E19.56856
G1 X123.124 Y120.467 E19.66915
G1 X122.434 Y121.298 E19.77123
G1 X121.695 Y122.063 E19.87174
G1 X120.886 Y122.789 E19.97446
G1 X120.05 Y123.435 E20.0743
G1 X119.147 Y124.032 E20.1766
G1 X118.218 Y124.555 E20.27734
G1 X117.245 Y125.01 E20.37885
G1 X116.237 Y125.395 E20.48082
G1 X115.216 Y125.702 E20.58157
G1 X114.174 Y125.934 E20.68245
G1 X113.101 Y126.092 E20.78494
G1 X112.045 Y126.17 E20.885
G1 X110.959 Y126.17 E20.98763
G1 X109.903 Y126.092 E21.0877
G1 X108.83 Y125.934 E21.19019
G1 X107.789 Y125.702 E21.29098
G1 X106.768 Y125.395 E21.39173
G1 X105.76 Y125.01 E21.49369
G1 X104.787 Y124.555 E21.5952
G1 X103.858 Y124.032 E21.69595
G1 X102.954 Y123.435 E21.79832
G1 X102.114 Y122.785 E21.89869
G1 X101.318 Y122.072 E21.99968
G1 X100.571 Y121.298 E22.10133
G1 X99.88 Y120.467 E22.20346
G1 X99.261 Y119.601 E22.30406
G1 X98.704 Y118.688 E22.40512
G1 X98.208 Y117.726 E22.5074
G1 X97.793 Y116.746 E22.60798
G1 X97.444 Y115.724 E22.71003
G1 X97.176 Y114.701 E22.80997
G1 X96.979 Y113.633 E22.91259
G1 X96.862 Y112.566 E23.01403
G1 X96.824 Y111.501 E23.11474
G1 X96.862 Y110.436 E23.21544
G1 X96.979 Y109.37 E23.31679
G1 X97.176 Y108.301 E23.41951
G1 X97.444 Y107.279 E23.51935
G1 X97.793 Y106.256 E23.6215
G1 X98.208 Y105.277 E23.72198
G1 X98.706 Y104.311 E23.82468
G1 X99.261 Y103.402 E23.92533
G1 X99.88 Y102.536 E24.02592
G1 X100.571 Y101.705 E24.12806
G1 X101.319 Y100.929 E24.22991
G1 X102.114 Y100.218 E24.3307
G1 X102.954 Y99.567 E24.43113
G1 X103.861 Y98.968 E24.53384
G1 X104.787 Y98.449 E24.63416
G1 X105.76 Y97.993 E24.7357
G1 X106.769 Y97.607 E24.83779
G1 X107.789 Y97.3 E24.93845
G1 X108.83 Y97.068 E25.03924
G1 X109.903 Y96.91 E25.14173
G1 X110.959 Y96.833 E25.24179
G1 X112.045 Y96.833 E25.34442
G1 X113.101 Y96.91 E25.44447
G1 X114.174 Y97.068 E25.54697
G0 F4320 X114.369 Y97.111
G0 X113.98 Y98.065
;TYPE:SKIN
G1 F1800 X114.956 Y98.281 E25.64143
G1 X115.907 Y98.569 E25.73533
G1 X116.847 Y98.929 E25.83045
G1 X117.749 Y99.35 E25.92452
G1 X118.626 Y99.842 E26.01955
G1 X119.466 Y100.398 E26.11474
G1 X120.234 Y100.992 E26.20649
G1 X120.985 Y101.664 E26.30172
G1 X121.669 Y102.375 E26.39496
G1 X122.336 Y103.177 E26.49353
G1 X122.887 Y103.949 E26.58316
G1 X123.425 Y104.829 E26.68063
G1 X123.873 Y105.701 E26.77327
G1 X124.262 Y106.615 E26.86714
G1 X124.588 Y107.571 E26.9626
G1 X124.837 Y108.522 E27.05549
G1 X125.02 Y109.512 E27.15063
G1 X125.127 Y110.491 E27.2437
G1 X125.166 Y111.489 E27.33808
G1 X125.127 Y112.503 E27.43398
G1 X125.021 Y113.483 E27.52713
G1 X124.837 Y114.478 E27.62275
G1 X124.59 Y115.425 E27.71523
G1 X124.261 Y116.389 E27.81149
G1 X123.882 Y117.283 E27.90325
G1 X123.419 Y118.185 E27.99907
G1 X122.895 Y119.044 E28.09415
G1 X122.336 Y119.826 E28.18499
G1 X121.669 Y120.628 E28.28357
G1 X121 Y121.323 E28.37473
G1 X120.245 Y122.001 E28.47062
G1 X119.461 Y122.607 E28.56426
G1 X118.622 Y123.162 E28.65932
G1 X117.744 Y123.656 E28.75453
G1 X116.859 Y124.07 E28.84686
G1 X115.91 Y124.433 E28.94287
G1 X114.96 Y124.719 E29.03663
G1 X113.98 Y124.937 E29.1315
G1 X112.998 Y125.081 E29.22529
G1 X111.997 Y125.155 E29.32015
G1 X111.007 Y125.155 E29.4137
G1 X110.006 Y125.081 E29.50855
G1 X109.024 Y124.937 E29.60235
G1 X108.046 Y124.72 E29.69701
G1 X107.087 Y124.43 E29.79169
G1 X106.146 Y124.07 E29.8869
G1 X105.261 Y123.656 E29.97923
G1 X104.383 Y123.162 E30.07444
G1 X103.542 Y122.607 E30.16966
G1 X102.777 Y122.015 E30.26107
G1 X102.024 Y121.34 E30.35663
G1 X101.327 Y120.618 E30.45147
G1 X100.673 Y119.832 E30.54809
G1 X100.101 Y119.033 E30.64095
G1 X99.592 Y118.196 E30.73353
G1 X99.12 Y117.278 E30.83107
G1 X98.744 Y116.389 E30.92229
G1 X98.415 Y115.425 E31.01854
G1 X98.167 Y114.477 E31.11115
G1 X97.983 Y113.483 E31.20667
G1 X97.877 Y112.502 E31.29992
G1 X97.839 Y111.513 E31.39345
G1 X97.877 Y110.49 E31.49019
G1 X97.984 Y109.512 E31.58316
G1 X98.167 Y108.523 E31.67821
G1 X98.417 Y107.571 E31.77122
G1 X98.745 Y106.609 E31.86727
G1 X99.122 Y105.721 E31.95843
G1 X99.601 Y104.791 E32.05729
G1 X100.102 Y103.969 E32.14826
G1 X100.68 Y103.161 E32.24214
G1 X101.331 Y102.38 E32.33823
G1 X102.019 Y101.664 E32.43206
G1 X102.771 Y100.992 E32.52737
G1 X103.538 Y100.398 E32.61904
G1 X104.379 Y99.842 E32.71431
G1 X105.256 Y99.35 E32.80934
G1 X106.158 Y98.929 E32.90341
G1 X107.098 Y98.569 E32.99853
G1 X108.049 Y98.281 E33.09243
G1 X109.024 Y98.065 E33.1868
G1 X110.006 Y97.921 E33.28059
G1 X111.006 Y97.848 E33.37534
G1 X111.998 Y97.848 E33.46909
G1 X112.998 Y97.921 E33.56384
G1 X113.98 Y98.065 E33.65763
G0 F4320 X119.261 Y100.452
G1 F1800 X122.533 Y103.724 E34.09491
G1 X122.595 Y103.786
G0 F4320 X123.359 Y105.045
G1 F1800 X117.968 Y99.654 E34.81538
G1 X117.906 Y99.592
G0 F4320 X116.987 Y99.168
G1 F1800 X123.836 Y106.017 E35.7307
G1 X123.898 Y106.079
G0 F4320 X124.175 Y106.851
G1 F1800 X116.157 Y98.833 E36.80225
G1 X116.095 Y98.771
G0 F4320 X115.412 Y98.583
G1 F1800 X124.431 Y107.602 E38.00758
G0 F4320 X124.61 Y108.276
G1 F1800 X114.725 Y98.391 E39.32865
G0 F4320 X114.089 Y98.25
G1 F1800 X124.749 Y108.91 E40.75328
G0 F4320 X124.862 Y109.518
G1 F1800 X113.497 Y98.152 E42.2722
G0 F4320 X112.922 Y98.073
G1 F1800 X124.923 Y110.073 E43.87599
G0 F4320 X124.974 Y110.619
G1 F1800 X112.388 Y98.034 E45.55795
G0 F4320 X111.864 Y98.004
G1 F1800 X124.995 Y111.135 E47.31282
G0 F4320 X125.003 Y111.638
G1 F1800 X111.369 Y98.004 E49.13491
G0 F4320 X110.884 Y98.014
G1 F1800 X124.984 Y112.115 E51.01935
G0 F4320 X124.959 Y112.585
G1 F1800 X110.423 Y98.048 E52.96205
G0 F4320 X109.965 Y98.085
G1 F1800 X124.911 Y113.032 E54.95955
G0 F4320 X124.862 Y113.477
G1 F1800 X109.532 Y98.148 E57.00824
G0 F4320 X109.101 Y98.212
G1 F1800 X124.785 Y113.895 E59.10423
G0 F4320 X124.708 Y114.313
G1 F1800 X108.693 Y98.299 E61.24446
G0 F4320 X108.288 Y98.388
G1 F1800 X124.613 Y114.713 E63.42618
G0 F4320 X124.51 Y115.106
G1 F1800 X107.896 Y98.491 E65.6466
G0 F4320 X107.515 Y98.606
G1 F1800 X124.4 Y115.491 E67.90316
G0 F4320 X124.274 Y115.86
G1 F1800 X107.136 Y98.722 E70.19354
G0 F4320 X106.778 Y98.859
G1 F1800 X124.148 Y116.229 E72.51492
G0 F4320 X124.008 Y116.583
G1 F1800 X106.42 Y98.996 E74.86537
G0 F4320 X106.072 Y99.142
G1 F1800 X123.86 Y116.93 E77.24261
G0 F4320 X123.709 Y117.274
G1 F1800 X105.734 Y99.299 E79.64485
G0 F4320 X105.397 Y99.457
G1 F1800 X123.541 Y117.601 E82.06967
G0 F4320 X123.373 Y117.929
G1 F1800 X105.076 Y99.631 E84.51501
G0 F4320 X104.759 Y99.809
G1 F1800 X123.197 Y118.247 E86.97912
G0 F4320 X123.009 Y118.554
G1 F1800 X104.443 Y99.988 E89.46034
G0 F4320 X104.145 Y100.185
G1 F1800 X122.822 Y118.862 E91.95639
G0 F4320 X122.621 Y119.156
G1 F1800 X103.847 Y100.382 E94.46541
G0 F4320 X103.553 Y100.583
G1 F1800 X122.415 Y119.445 E96.98619
G0 F4320 X122.207 Y119.732
G1 F1800 X103.274 Y100.799 E99.51646
G0 F4320 X102.995 Y101.015
G1 F1800 X121.982 Y120.003 E102.05401
G0 F4320 X121.758 Y120.273
G1 F1800 X102.726 Y101.241 E104.5975
G0 F4320 X102.464 Y101.474
G1 F1800 X121.532 Y120.542 E107.14581
G0 F4320 X121.29 Y120.795
G1 F1800 X102.203 Y101.708 E109.69666
G0 F4320 X101.954 Y101.954
G1 F1800 X121.047 Y121.047 E112.24831
G0 F4320 X120.797 Y121.292
G1 F1800 X101.712 Y102.207 E114.79889
G0 F4320 X101.47 Y102.46
G1 F1800 X120.536 Y121.526 E117.34693
G0 F4320 X120.276 Y121.76
G1 F1800 X101.243 Y102.728 E119.89049
G0 F4320 X101.018 Y102.998
G1 F1800 X120.006 Y121.986 E122.42811
G0 F4320 X119.727 Y122.202
G1 F1800 X100.794 Y103.269 E124.95838
G0 F4320 X100.588 Y103.557
G1 F1800 X119.447 Y122.417 E127.47882
G0 F4320 X119.154 Y122.619
G1 F1800 X100.381 Y103.846 E129.9877
G0 F4320 X100.18 Y104.139
G1 F1800 X118.856 Y122.816 E132.48369
G0 F4320 X118.559 Y123.013
G1 F1800 X99.992 Y104.447 E134.96498
G0 F4320 X99.805 Y104.755
G1 F1800 X118.243 Y123.192 E137.42902
G0 F4320 X117.926 Y123.371
G1 F1800 X99.63 Y105.075 E139.87416
G0 F4320 X99.462 Y105.402
G1 F1800 X117.605 Y123.545 E142.29885
G0 F4320 X117.268 Y123.703
G1 F1800 X99.294 Y105.728 E144.70102
G0 F4320 X99.142 Y106.071
G1 F1800 X116.931 Y123.861 E147.07846
G0 F4320 X116.582 Y124.006
G1 F1800 X98.994 Y106.419 E149.42891
G0 F4320 X98.854 Y106.773
G1 F1800 X116.224 Y124.143 E151.75029
G0 F4320 X115.866 Y124.281
G1 F1800 X98.728 Y107.142 E154.04074
G0 F4320 X98.602 Y107.512
G1 F1800 X115.486 Y124.395 E156.2971
G0 F4320 X115.105 Y124.51
G1 F1800 X98.492 Y107.897 E158.51731
G0 F4320 X98.389 Y108.289
G1 F1800 X114.712 Y124.612 E160.69877
G0 F4320 X114.308 Y124.702
G1 F1800 X98.294 Y108.689 E162.83887
G0 F4320 X98.217 Y109.107
G1 F1800 X113.9 Y124.789 E164.93473
G0 F4320 X113.468 Y124.852
G1 F1800 X98.14 Y109.524 E166.98321
G0 F4320 X98.091 Y109.97
G1 F1800 X113.035 Y124.915 E168.98044
G0 F4320 X112.578 Y124.952
G1 F1800 X98.042 Y110.416 E170.92308
G0 F4320 X98.019 Y110.888
G1 F1800 X112.118 Y124.987 E172.80731
G0 F4320 X111.633 Y124.997
G1 F1800 X98.001 Y111.365 E174.62914
G0 F4320 X98.009 Y111.868
G1 F1800 X111.138 Y124.997 E176.38374
G0 F4320 X110.612 Y124.966
G1 F1800 X98.029 Y112.384 E178.0653
G0 F4320 X98.08 Y112.929
G1 F1800 X110.078 Y124.927 E179.66875
G0 F4320 X109.503 Y124.847
G1 F1800 X98.142 Y113.486 E181.18707
G0 F4320 X98.255 Y114.094
G1 F1800 X108.91 Y124.749 E182.61104
G0 F4320 X108.274 Y124.608
G1 F1800 X98.395 Y114.729 E183.9313
G0 F4320 X98.574 Y115.404
G1 F1800 X107.586 Y124.415 E185.13563
G1 X107.648 Y124.477
G0 F4320 X106.843 Y124.167
G1 F1800 X98.83 Y116.155 E186.20644
G1 X98.768 Y116.093
G0 F4320 X99.167 Y116.986
G1 F1800 X106.015 Y123.834 E187.12163
G1 X106.077 Y123.896
G0 F4320 X105.03 Y123.344
G1 F1800 X99.648 Y117.962 E187.8409
G1 X99.586 Y117.9
G0 F4320 X100.471 Y119.28
G1 F1800 X103.739 Y122.548 E188.27765
G1 X103.801 Y122.61
;MESH:NONMESH
G0 F600 X103.801 Y122.61 Z0.47
G0 F4320 X113.763 Y97.589
;TIME_ELAPSED:72.542930
;LAYER:1
M106 S255
;TYPE:WALL-INNER
